X: 30322
M: 3/8
L: 1/16
K: C
cBcde2 | dcdef2 | BABcdB | cdefg2 |\
cBcde2 | dcdef2 | bagfed | "^FINE"c4 :|
dededB | g^fedcB | A^GABcd | B2GABc |\
dededB | d'c'bag^f | edcBAd | "^D.C."G4 |]


